svg/aws-ec2-inf1.svg

<?xml version="1.0" encoding="UTF-8"?>
<svg xmlns="http://www.w3.org/2000/svg" xmlns:xlink="http://www.w3.org/1999/xlink" width="32" height="32" viewBox="0 0 32 32">
<path fill-rule="evenodd" fill="rgb(83.137255%, 35.686275%, 2.745098%)" fill-opacity="1" d="M 6 26 L 26 26 L 26 6 L 6 6 Z M 27.332031 8.667969 L 27.332031 11.332031 L 30.667969 11.332031 L 30.667969 12.667969 L 27.332031 12.667969 L 27.332031 15.332031 L 30.667969 15.332031 L 30.667969 16.667969 L 27.332031 16.667969 L 27.332031 19.332031 L 30.667969 19.332031 L 30.667969 20.667969 L 27.332031 20.667969 L 27.332031 23.332031 L 30.667969 23.332031 L 30.667969 24.667969 L 27.332031 24.667969 L 27.332031 26.667969 C 27.332031 27.035156 27.035156 27.332031 26.667969 27.332031 L 24.667969 27.332031 L 24.667969 30.667969 L 23.332031 30.667969 L 23.332031 27.332031 L 20.667969 27.332031 L 20.667969 30.667969 L 19.332031 30.667969 L 19.332031 27.332031 L 16.667969 27.332031 L 16.667969 30.667969 L 15.332031 30.667969 L 15.332031 27.332031 L 12.667969 27.332031 L 12.667969 30.667969 L 11.332031 30.667969 L 11.332031 27.332031 L 8.667969 27.332031 L 8.667969 30.667969 L 7.332031 30.667969 L 7.332031 27.332031 L 5.332031 27.332031 C 4.964844 27.332031 4.667969 27.035156 4.667969 26.667969 L 4.667969 24.667969 L 1.332031 24.667969 L 1.332031 23.332031 L 4.667969 23.332031 L 4.667969 20.667969 L 1.332031 20.667969 L 1.332031 19.332031 L 4.667969 19.332031 L 4.667969 16.667969 L 1.332031 16.667969 L 1.332031 15.332031 L 4.667969 15.332031 L 4.667969 12.667969 L 1.332031 12.667969 L 1.332031 11.332031 L 4.667969 11.332031 L 4.667969 8.667969 L 1.332031 8.667969 L 1.332031 7.332031 L 4.667969 7.332031 L 4.667969 5.332031 C 4.667969 4.964844 4.964844 4.667969 5.332031 4.667969 L 7.332031 4.667969 L 7.332031 1.332031 L 8.667969 1.332031 L 8.667969 4.667969 L 11.332031 4.667969 L 11.332031 1.332031 L 12.667969 1.332031 L 12.667969 4.667969 L 15.332031 4.667969 L 15.332031 1.332031 L 16.667969 1.332031 L 16.667969 4.667969 L 19.332031 4.667969 L 19.332031 1.332031 L 20.667969 1.332031 L 20.667969 4.667969 L 23.332031 4.667969 L 23.332031 1.332031 L 24.667969 1.332031 L 24.667969 4.667969 L 26.667969 4.667969 C 27.035156 4.667969 27.332031 4.964844 27.332031 5.332031 L 27.332031 7.332031 L 30.667969 7.332031 L 30.667969 8.667969 Z M 20.335938 18.484375 L 21.210938 18.484375 L 21.210938 13.402344 L 20.417969 13.402344 L 18.964844 14.078125 L 18.964844 14.78125 L 20.335938 14.269531 Z M 16.378906 18.484375 L 17.242188 18.484375 L 17.242188 15.414062 L 18.34375 15.414062 L 18.34375 14.753906 L 17.242188 14.753906 L 17.242188 14.167969 C 17.242188 13.976562 17.289062 13.839844 17.378906 13.761719 C 17.46875 13.679688 17.621094 13.636719 17.828125 13.636719 C 17.921875 13.636719 18.109375 13.65625 18.386719 13.691406 L 18.386719 13.097656 C 18.144531 13 17.878906 12.949219 17.617188 12.957031 C 16.789062 12.957031 16.378906 13.398438 16.378906 14.277344 L 16.378906 14.773438 L 15.726562 14.871094 L 15.726562 15.414062 L 16.378906 15.414062 Z M 12.769531 15.648438 C 13.105469 15.433594 13.4375 15.324219 13.757812 15.324219 C 13.972656 15.324219 14.128906 15.378906 14.230469 15.488281 C 14.328125 15.601562 14.375 15.773438 14.375 16.015625 L 14.375 18.484375 L 15.242188 18.484375 L 15.242188 15.742188 C 15.242188 15.386719 15.148438 15.113281 14.960938 14.925781 C 14.777344 14.738281 14.503906 14.644531 14.148438 14.644531 C 13.648438 14.644531 13.171875 14.816406 12.710938 15.164062 L 12.621094 14.753906 L 11.902344 14.753906 L 11.902344 18.484375 L 12.769531 18.484375 Z M 9.996094 18.484375 L 10.890625 18.484375 L 10.890625 13.402344 L 9.996094 13.402344 Z M 9.996094 18.484375 "/>
</svg>

<svg role="img" viewBox="0 0 32 32" height="32" width="32" xmlns="http://www.w3.org/2000/svg"><path d="M6 26h20V6H6ZM27.332 8.668v2.664h3.336v1.336h-3.336v2.664h3.336v1.336h-3.336v2.664h3.336v1.336h-3.336v2.664h3.336v1.336h-3.336v2a.664.664 0 0 1-.664.664h-2v3.336h-1.336v-3.336h-2.664v3.336h-1.336v-3.336h-2.664v3.336h-1.336v-3.336h-2.664v3.336h-1.336v-3.336H8.668v3.336H7.332v-3.336h-2a.664.664 0 0 1-.664-.664v-2H1.332v-1.336h3.336v-2.664H1.332v-1.336h3.336v-2.664H1.332v-1.336h3.336v-2.664H1.332v-1.336h3.336V8.668H1.332V7.332h3.336v-2c0-.367.297-.664.664-.664h2V1.332h1.336v3.336h2.664V1.332h1.336v3.336h2.664V1.332h1.336v3.336h2.664V1.332h1.336v3.336h2.664V1.332h1.336v3.336h2c.367 0 .664.297.664.664v2h3.336v1.336Zm-6.996 9.816h.875v-5.082h-.793l-1.453.676v.703l1.37-.511Zm-3.957 0h.863v-3.07h1.102v-.66h-1.102v-.586c0-.191.047-.328.137-.406.09-.082.242-.125.45-.125.093 0 .28.02.558.054v-.593a1.922 1.922 0 0 0-.77-.141c-.828 0-1.238.441-1.238 1.32v.496l-.652.098v.543h.652Zm-3.61-2.836c.336-.214.668-.324.989-.324.215 0 .37.055.472.164.098.114.145.285.145.528v2.468h.867v-2.742c0-.355-.094-.629-.281-.816-.184-.188-.457-.281-.813-.281-.5 0-.976.171-1.437.52l-.09-.411h-.719v3.73h.868Zm-2.773 2.836h.895v-5.082h-.895Zm0 0" fill="rgb(83.137255%, 35.686275%, 2.745098%)" fill-rule="evenodd"/></svg>
